svg/media/skip_forward_line.svg

<?xml version="1.0" encoding="UTF-8"?>
<svg width="24px" height="24px" viewBox="0 0 24 24" version="1.1" xmlns="http://www.w3.org/2000/svg" xmlns:xlink="http://www.w3.org/1999/xlink">
    <title>skip_next_line</title>
    <g id="页面-1" stroke="none" stroke-width="1" fill="none" fill-rule="evenodd">
        <g id="Media" transform="translate(-1104.000000, 0.000000)">
            <g id="skip_next_line" transform="translate(1104.000000, 0.000000)">
                 <path d="M24,0 L24,24 L0,24 L0,0 L24,0 Z M12.5934901,23.257841 L12.5819402,23.2595131 L12.5108777,23.2950439 L12.4918791,23.2987469 L12.4918791,23.2987469 L12.4767152,23.2950439 L12.4056548,23.2595131 C12.3958229,23.2563662 12.3870493,23.2590235 12.3821421,23.2649074 L12.3780323,23.275831 L12.360941,23.7031097 L12.3658947,23.7234994 L12.3769048,23.7357139 L12.4804777,23.8096931 L12.4953491,23.8136134 L12.4953491,23.8136134 L12.5071152,23.8096931 L12.6106902,23.7357139 L12.6232938,23.7196733 L12.6232938,23.7196733 L12.6266527,23.7031097 L12.609561,23.275831 C12.6075724,23.2657013 12.6010112,23.2592993 12.5934901,23.257841 L12.5934901,23.257841 Z M12.8583906,23.1452862 L12.8445485,23.1473072 L12.6598443,23.2396597 L12.6498822,23.2499052 L12.6498822,23.2499052 L12.6471943,23.2611114 L12.6650943,23.6906389 L12.6699349,23.7034178 L12.6699349,23.7034178 L12.678386,23.7104931 L12.8793402,23.8032389 C12.8914285,23.8068999 12.9022333,23.8029875 12.9078286,23.7952264 L12.9118235,23.7811639 L12.8776777,23.1665331 C12.8752882,23.1545897 12.8674102,23.1470016 12.8583906,23.1452862 L12.8583906,23.1452862 Z M12.1430473,23.1473072 C12.1332178,23.1423925 12.1221763,23.1452606 12.1156365,23.1525954 L12.1099173,23.1665331 L12.0757714,23.7811639 C12.0751323,23.7926639 12.0828099,23.8018602 12.0926481,23.8045676 L12.108256,23.8032389 L12.3092106,23.7104931 L12.3186497,23.7024347 L12.3186497,23.7024347 L12.3225043,23.6906389 L12.340401,23.2611114 L12.337245,23.2485176 L12.337245,23.2485176 L12.3277531,23.2396597 L12.1430473,23.1473072 Z" id="MingCute" fill-rule="nonzero"></path>
                <path d="M4.56853,5.86513 C4.67801,4.98243 5.59583,4.45316 6.41468,4.80065 L6.91002972,5.01585368 L6.91002972,5.01585368 L7.57211434,5.31671529 L7.57211434,5.31671529 L8.3857326,5.70413627 L8.3857326,5.70413627 L8.84461646,5.93058823 L8.84461646,5.93058823 L9.59269149,6.31150993 L9.59269149,6.31150993 L10.1284699,6.59311788 L10.1284699,6.59311788 L10.6916809,6.89698542 L10.6916809,6.89698542 L11.2804243,7.22322524 L11.2804243,7.22322524 L11.8928,7.57195 L11.8928,7.57195 L12.5257725,7.9426344 L12.5257725,7.9426344 L13.1247468,8.3032294 L13.1247468,8.3032294 L13.6887578,8.65181016 L13.6887578,8.65181016 L14.4671076,9.14794404 L14.4671076,9.14794404 L15.1613625,9.60621875 L15.1613625,9.60621875 L15.7682658,10.020138 L15.7682658,10.020138 L16.4359613,10.4918048 L16.4359613,10.4918048 L16.8263796,10.7769646 L16.8263796,10.7769646 L17.0323,10.9308 L17.0323,10.9308 C17.7429,11.4664 17.7425,12.5257 17.0334,13.0614 L16.4713912,13.4761944 L16.4713912,13.4761944 L15.8463475,13.9191085 L15.8463475,13.9191085 L15.4770819,14.1733112 L15.4770819,14.1733112 L14.8540286,14.5911693 L14.8540286,14.5911693 L14.1498824,15.0482226 L14.1498824,15.0482226 L13.6364516,15.3721056 L13.6364516,15.3721056 L13.0885569,15.7095172 L13.0885569,15.7095172 L12.5068294,16.0589009 L12.5068294,16.0589009 L11.8919,16.4187 L11.8919,16.4187 L11.5791661,16.5980352 L11.5791661,16.5980352 L10.6790098,17.1006468 L10.6790098,17.1006468 L10.1126912,17.4065153 L10.1126912,17.4065153 L9.57534335,17.689289 L9.57534335,17.689289 L9.0686312,17.9491992 L9.0686312,17.9491992 L8.59421959,18.1864772 L8.59421959,18.1864772 L7.74895748,18.5940618 L7.74895748,18.5940618 L7.21218231,18.8420613 L7.21218231,18.8420613 L6.41285,19.1931 L6.41285,19.1931 C5.59498,19.539 4.67819,19.0108 4.56871,18.1285 L4.48984792,17.4300488 L4.48984792,17.4300488 L4.41798914,16.6630198 L4.41798914,16.6630198 L4.3645018,15.9742112 L4.3645018,15.9742112 L4.31530744,15.1937656 L4.31530744,15.1937656 L4.28664922,14.6250839 L4.28664922,14.6250839 L4.26252854,14.0194616 L4.26252854,14.0194616 L4.24399723,13.3784137 L4.24399723,13.3784137 L4.22898003,12.3537323 L4.22898003,12.3537323 L4.22898003,11.6386477 L4.22898003,11.6386477 L4.24398037,10.6144594 L4.24398037,10.6144594 L4.27390966,9.66649319 L4.27390966,9.66649319 L4.30040627,9.07938138 L4.30040627,9.07938138 L4.33091279,8.52992607 L4.33091279,8.52992607 L4.38189412,7.7796566 L4.38189412,7.7796566 L4.43599111,7.12261933 L4.43599111,7.12261933 L4.50684158,6.40041754 L4.50684158,6.40041754 L4.56853,5.86513 L4.56853,5.86513 Z M19,5.00011 C19.5127571,5.00011 19.9354959,5.38615429 19.9932711,5.88348975 L20,6.00011 L20,18.00011 C20,18.5524 19.5522,19.00011 19,19.00011 C18.48715,19.00011 18.0644908,18.6140743 18.0067275,18.1167321 L18,18.00011 L18,6.00011 C18,5.44783 18.4477,5.00011 19,5.00011 Z M6.45562,7.00448 L6.39533677,7.68530667 L6.39533677,7.68530667 L6.35594697,8.20999072 L6.35594697,8.20999072 L6.31908543,8.78857106 L6.31908543,8.78857106 L6.28637133,9.41869621 L6.28637133,9.41869621 L6.25942385,10.0980147 L6.25942385,10.0980147 L6.23986218,10.824175 L6.23986218,10.824175 L6.22930549,11.5948256 C6.22838641,11.7268443 6.22791,11.8606188 6.22791,11.9961 L6.23336094,12.788401 C6.23513289,12.9169046 6.23731406,13.0436022 6.23987068,13.1684447 L6.25944564,13.8948457 L6.25944564,13.8948457 L6.28641045,14.5743677 L6.28641045,14.5743677 L6.31914416,15.2046538 L6.31914416,15.2046538 L6.37551562,16.0526109 L6.37551562,16.0526109 L6.43574936,16.7765315 C6.44245395,16.8497816 6.44912875,16.9205875 6.45574,16.9889 L7.07166271,16.7019586 L7.07166271,16.7019586 L7.54351125,16.4743519 L7.54351125,16.4743519 L8.06135032,16.2172877 L8.06135032,16.2172877 L8.62261175,15.9304169 L8.62261175,15.9304169 L9.22472738,15.6133903 L9.22472738,15.6133903 L9.86512905,15.2658585 L9.86512905,15.2658585 L10.5412486,14.8874725 L10.5412486,14.8874725 L11.2410221,14.4834609 L11.2410221,14.4834609 L11.9064808,14.0872971 L11.9064808,14.0872971 L12.5274071,13.7066173 L12.5274071,13.7066173 L13.1028189,13.3438192 L13.1028189,13.3438192 L13.6317342,13.0013003 L13.6317342,13.0013003 L14.113171,12.6814584 L14.113171,12.6814584 L14.7441559,12.2494598 L14.7441559,12.2494598 L15.1026,11.9968 L15.1026,11.9968 L14.7410322,11.7418416 L14.7410322,11.7418416 L14.105875,11.3065916 C14.0292542,11.2549847 13.9506454,11.2023509 13.8700764,11.1487451 L13.3633625,10.8158875 L13.3633625,10.8158875 L12.5180074,10.27864 C12.4185327,10.2166901 12.3172371,10.1540434 12.2141484,10.0907547 L11.5743225,9.70375996 L11.5743225,9.70375996 L10.8928,9.304 L10.8928,9.304 L10.2057848,8.91363908 C10.0938593,8.85106112 9.98326343,8.789722 9.87405865,8.72961831 L9.23601591,8.38379425 L9.23601591,8.38379425 L8.63431506,8.06745767 L8.63431506,8.06745767 L7.80636865,7.64788525 L7.80636865,7.64788525 L7.07681272,7.29374275 L7.07681272,7.29374275 L6.65002828,7.09372601 C6.58307516,7.06278379 6.51825187,7.03303625 6.45562,7.00448 Z" id="形状" fill="#09244B"></path>
            </g>
        </g>
    </g>
</svg>

<svg xmlns="http://www.w3.org/2000/svg" width="24" height="24"><g fill="none" fill-rule="evenodd"><path d="M24 0v24H0V0h24ZM12.593 23.258l-.011.002-.071.035-.02.004-.014-.004-.071-.035c-.01-.004-.019-.001-.024.005l-.004.01-.017.428.005.02.01.013.104.074.015.004.012-.004.104-.074.012-.016.004-.017-.017-.427c-.002-.01-.009-.017-.017-.018Zm.265-.113-.013.002-.185.093-.01.01-.003.011.018.43.005.012.008.007.201.093c.012.004.023 0 .029-.008l.004-.014-.034-.614c-.003-.012-.01-.02-.02-.022Zm-.715.002a.023.023 0 0 0-.027.006l-.006.014-.034.614c0 .012.007.02.017.024l.015-.002.201-.093.01-.008.004-.011.017-.43-.003-.012-.01-.01-.184-.092Z"/><path fill="#09244B" d="M4.569 5.865a1.332 1.332 0 0 1 1.846-1.064l.495.215.662.3.814.388.459.227.748.38.535.282.564.304.588.326.613.349.633.37.599.361.564.349.778.496.694.458.607.414.668.472.39.285.206.154c.71.535.71 1.595.001 2.13l-.562.415-.625.443-.369.254-.623.418-.704.457-.514.324-.547.338-.582.349-.615.36-.313.179-.9.503-.566.306-.538.282-.506.26-.475.237-.845.408-.537.248-.8.351a1.332 1.332 0 0 1-1.843-1.065l-.08-.698-.071-.767-.053-.689-.05-.78-.028-.569-.024-.606-.019-.64-.015-1.025v-.715l.015-1.025.03-.948.026-.587.03-.55.052-.75.054-.656.07-.723.063-.535ZM19 5a1 1 0 0 1 .993.883L20 6v12a1 1 0 0 1-1.993.117L18 18V6a1 1 0 0 1 1-1ZM6.456 7.004l-.06.681-.04.525-.037.579-.033.63-.027.679-.02.726-.01.77-.001.402.005.792.007.38.02.727.026.68.033.63.057.848.06.724a41 41 0 0 0 .02.212l.616-.287.472-.228.517-.257.562-.287.602-.317.64-.347.676-.379.7-.404.665-.396.621-.38.576-.363.529-.343.481-.32.631-.432.359-.252-.362-.255-.635-.435a50.139 50.139 0 0 0-.236-.158l-.507-.333-.845-.537c-.1-.062-.2-.125-.304-.188l-.64-.387-.681-.4-.687-.39a56.843 56.843 0 0 0-.332-.184l-.638-.346-.602-.317-.828-.42-.73-.353-.426-.2-.194-.09Z"/></g></svg>
